web-components-icons/e900-file/SVG/page-footer-section.svg

<?xml version="1.0" encoding="utf-8"?>
<!-- Generator: Adobe Illustrator 24.2.0, SVG Export Plug-In . SVG Version: 6.00 Build 0)  -->
<svg version="1.1" id="Layer_1" xmlns="http://www.w3.org/2000/svg" xmlns:xlink="http://www.w3.org/1999/xlink" x="0px" y="0px"
	 width="512px" height="512px" viewBox="0 0 512 512" xml:space="preserve">
<path d="M352,32H96c-17.7,0-32,14.3-32,32v384c0,17.7,14.3,32,32,32h320c17.7,0,32-14.3,32-32V128L352,32z M416,448H96V64h224v96h96
	V448z M385,416H129v-96h256V416z M385,256H129v32h256V256z M385,192H129v32h256V192z"/>
</svg>

<svg xmlns="http://www.w3.org/2000/svg" viewBox="0 0 512 512"><title>page-footer-section</title><g id="pageFooter_section" data-name="pageFooter section"><path d="M352,32H96A32,32,0,0,0,64,64V448a32,32,0,0,0,32,32H416a32,32,0,0,0,32-32V128Zm64,416H96V64H320v96h96Zm-31-32H129V320H385Zm0-160H129v32H385Zm0-64H129v32H385Z"/></g></svg>
